X:608
T:Maid in the Meadow, The
R:reel
D:Kevin Crawford: D flute album
Z:id:hn-reel-608
M:C|
K:Dmix
d2ed cAGB|Add^c dfag|fded cAGE|~E2cE EDD2:||:fdd^c d2 (3Bcd|
eaag efge|1 fdd^c d2 (3Bcd|eaag edde:|2 ~f3g eA (3Bcd|eaag efge||
